;FLAVOR:Marlin
;TIME:947
;Filament used: 0.592987m
;Layer height: 0.1
;MINX:-16.141
;MINY:-18.141
;MINZ:0.3
;MAXX:16.141
;MAXY:18.141
;MAXZ:14
;Generated with Cura_SteamEngine main
M104 S230
M105
M109 S230
M82 ;absolute extrusion mode
G28 ;Home
G1 Z15.0 F6000 ;Move the platform down 15mm
;Prime the extruder
G92 E0
G1 F200 E3
G92 E0
G92 E0
G92 E0
G1 F1500 E-0.5
;LAYER_COUNT:138
;LAYER:0
M107
G0 F3600 X-11.707 Y2.261 Z0.3
G0 X-15.82 Y-2.735
;TYPE:SKIRT
G1 F1500 E0
G1 F1800 X-16.005 Y-3.52 E0.06066
G1 X-16.113 Y-4.319 E0.1213
G1 X-16.141 Y-5 E0.17256
G1 X-16.141 Y-10 E0.5486
G1 X-16.101 Y-10.806 E0.6093
G1 X-15.981 Y-11.604 E0.66999
G1 X-15.784 Y-12.386 E0.73064
G1 X-15.509 Y-13.144 E0.79129
G1 X-15.161 Y-13.872 E0.85197
G1 X-14.743 Y-14.562 E0.91265
G1 X-14.258 Y-15.207 E0.97334
G1 X-13.712 Y-15.801 E1.03402
G1 X-13.11 Y-16.338 E1.09469
G1 X-12.457 Y-16.812 E1.15538
G1 X-11.761 Y-17.22 E1.21606
G1 X-11.028 Y-17.557 E1.27673
G1 X-10.265 Y-17.82 E1.33743
G1 X-9.48 Y-18.005 E1.39809
G1 X-8.681 Y-18.113 E1.45873
G1 X-8 Y-18.141 E1.50999
G1 X-5 Y-18.141 E1.73561
G1 X-4.194 Y-18.101 E1.79631
G1 X-3.396 Y-17.981 E1.857
G1 X-2.614 Y-17.784 E1.91765
G1 X-1.856 Y-17.509 E1.9783
G1 X-.982 Y-17.091 E2.05116
G1 X-.761 Y-17.22 E2.07041
G1 X-0.028 Y-17.557 E2.13108
G1 X0.735 Y-17.82 E2.19178
G1 X1.52 Y-18.005 E2.25244
G1 X2.319 Y-18.113 E2.31308
G1 X3 Y-18.141 E2.36434
G1 X8 Y-18.141 E2.74038
G1 X8.806 Y-18.101 E2.80108
G1 X9.604 Y-17.981 E2.86177
G1 X10.386 Y-17.784 E2.92242
G1 X11.144 Y-17.509 E2.98307
G1 X11.872 Y-17.161 E3.04375
G1 X12.562 Y-16.743 E3.10443
G1 X13.207 Y-16.258 E3.16512
G1 X13.801 Y-15.712 E3.2258
G1 X14.338 Y-15.11 E3.28647
G1 X14.812 Y-14.457 E3.34716
G1 X15.22 Y-13.761 E3.40784
G1 X15.557 Y-13.028 E3.46851
G1 X15.82 Y-12.265 E3.52921
G1 X16.005 Y-11.48 E3.58987
G1 X16.113 Y-10.681 E3.65051
G1 X16.141 Y-10 E3.70177
G1 X16.141 Y10 E5.20596
G1 X16.101 Y10.806 E5.26665
G1 X15.981 Y11.604 E5.32734
G1 X15.784 Y12.386 E5.38799
G1 X15.509 Y13.144 E5.44864
G1 X15.161 Y13.872 E5.50932
G1 X14.743 Y14.562 E5.57
G1 X14.258 Y15.207 E5.63069
G1 X13.712 Y15.801 E5.69137
G1 X13.11 Y16.338 E5.75204
G1 X12.457 Y16.812 E5.81273
G1 X11.761 Y17.22 E5.87341
G1 X11.028 Y17.557 E5.93408
G1 X10.265 Y17.82 E5.99478
G1 X9.48 Y18.005 E6.05544
G1 X8.681 Y18.113 E6.11608
G1 X8 Y18.141 E6.16734
G1 X-4.049 Y18.141 E7.07354
G1 X-4.855 Y18.101 E7.13423
G1 X-5.653 Y17.981 E7.19492
G1 X-6.435 Y17.784 E7.25557
G1 X-7.193 Y17.509 E7.31622
G1 X-7.921 Y17.161 E7.3769
G1 X-8.611 Y16.743 E7.43758
G1 X-9.256 Y16.258 E7.49827
G1 X-9.85 Y15.712 E7.55895
G1 X-10.387 Y15.11 E7.61963
G1 X-10.861 Y14.457 E7.68031
G1 X-11.269 Y13.761 E7.74099
G1 X-11.606 Y13.028 E7.80166
G1 X-11.869 Y12.265 E7.86236
G1 X-12.054 Y11.48 E7.92302
G1 X-12.162 Y10.681 E7.98366
G1 X-12.19 Y10.002 E8.03477
G1 X-12.191 Y5.002 E8.41082
G1 X-12.151 Y4.196 E8.47151
G1 X-12.032 Y3.398 E8.53219
G1 X-11.834 Y2.616 E8.59286
G1 X-11.707 Y2.261 E8.62122
G1 X-12.562 Y1.743 E8.6964
G1 X-13.207 Y1.258 E8.7571
G1 X-13.801 Y0.712 E8.81778
G1 X-14.338 Y0.11 E8.87845
G1 X-14.812 Y-.543 E8.93913
G1 X-15.22 Y-1.239 E8.99981
G1 X-15.557 Y-1.972 E9.06049
G1 X-15.82 Y-2.735 E9.12119
G0 F3600 X-14.935 Y-4.669
G1 F1800 X-14.935 Y-10 E9.52213
G1 X-14.895 Y-10.744 E9.57816
G1 X-14.776 Y-11.478 E9.63409
G1 X-14.578 Y-12.196 E9.6901
G1 X-14.305 Y-12.889 E9.74612
G1 X-13.959 Y-13.548 E9.8021
G1 X-13.544 Y-14.167 E9.85815
G1 X-13.065 Y-14.737 E9.91415
G1 X-12.528 Y-15.253 E9.97016
G1 X-11.939 Y-15.708 E10.02614
G1 X-11.304 Y-16.097 E10.08214
G1 X-10.632 Y-16.416 E10.13809
G1 X-9.928 Y-16.661 E10.19415
G1 X-9.203 Y-16.83 E10.25014
G1 X-8.331 Y-16.935 E10.3162
G1 X-5 Y-16.935 E10.56672
G1 X-4.256 Y-16.895 E10.62275
G1 X-3.522 Y-16.776 E10.67868
G1 X-2.804 Y-16.578 E10.7347
G1 X-2.111 Y-16.305 E10.79071
G1 X-1.452 Y-15.959 E10.84669
G1 X-1.011 Y-15.664 E10.8866
G1 X-.304 Y-16.097 E10.94895
G1 X0.368 Y-16.416 E11.0049
G1 X1.072 Y-16.661 E11.06096
G1 X1.797 Y-16.83 E11.11695
G1 X2.669 Y-16.935 E11.183
G1 X8 Y-16.935 E11.58395
G1 X8.744 Y-16.895 E11.63998
G1 X9.478 Y-16.776 E11.69591
G1 X10.196 Y-16.578 E11.75192
G1 X10.889 Y-16.305 E11.80794
G1 X11.548 Y-15.959 E11.86392
G1 X12.167 Y-15.544 E11.91997
G1 X12.737 Y-15.065 E11.97597
G1 X13.253 Y-14.528 E12.03198
G1 X13.708 Y-13.939 E12.08795
G1 X14.097 Y-13.304 E12.14396
G1 X14.416 Y-12.632 E12.19991
G1 X14.661 Y-11.928 E12.25597
G1 X14.83 Y-11.203 E12.31196
G1 X14.935 Y-10.331 E12.37801
G1 X14.935 Y10 E13.9071
G1 X14.895 Y10.744 E13.96313
G1 X14.776 Y11.478 E14.01906
G1 X14.578 Y12.196 E14.07508
G1 X14.305 Y12.889 E14.13109
G1 X13.959 Y13.548 E14.18707
G1 X13.544 Y14.167 E14.24312
G1 X13.065 Y14.737 E14.29912
G1 X12.528 Y15.253 E14.35513
G1 X11.939 Y15.708 E14.41111
G1 X11.304 Y16.097 E14.46711
G1 X10.632 Y16.416 E14.52306
G1 X9.928 Y16.661 E14.57912
G1 X9.203 Y16.83 E14.63511
G1 X8.331 Y16.935 E14.70117
G1 X-4.049 Y16.935 E15.63226
G1 X-4.793 Y16.895 E15.6883
G1 X-5.527 Y16.776 E15.74422
G1 X-6.245 Y16.578 E15.80024
G1 X-6.938 Y16.305 E15.85626
G1 X-7.597 Y15.959 E15.91224
G1 X-8.216 Y15.544 E15.96828
G1 X-8.786 Y15.065 E16.02428
G1 X-9.302 Y14.528 E16.08029
G1 X-9.757 Y13.939 E16.13627
G1 X-10.146 Y13.304 E16.19228
G1 X-10.465 Y12.632 E16.24822
G1 X-10.71 Y11.928 E16.30428
G1 X-10.879 Y11.203 E16.36027
G1 X-10.984 Y10.332 E16.42625
G1 X-10.985 Y5.001 E16.8272
G1 X-10.945 Y4.258 E16.88316
G1 X-10.826 Y3.523 E16.93916
G1 X-10.628 Y2.805 E16.99517
G1 X-10.355 Y2.112 E17.05119
G1 X-10.096 Y1.618 E17.09314
G1 X-10.889 Y1.305 E17.15726
G1 X-11.548 Y0.959 E17.21324
G1 X-12.167 Y0.544 E17.26929
G1 X-12.737 Y0.065 E17.32528
G1 X-13.253 Y-.472 E17.3813
G1 X-13.708 Y-1.061 E17.43727
G1 X-14.097 Y-1.696 E17.49328
G1 X-14.416 Y-2.368 E17.54923
G1 X-14.661 Y-3.072 E17.60529
G1 X-14.83 Y-3.797 E17.66128
G1 X-14.935 Y-4.669 E17.72733
G0 F3600 X-14.332 Y-5
G1 F1800 X-14.332 Y-10 E18.10338
G1 X-14.292 Y-10.71 E18.15686
G1 X-14.173 Y-11.412 E18.21041
G1 X-13.975 Y-12.095 E18.2639
G1 X-13.703 Y-12.752 E18.31738
G1 X-13.358 Y-13.375 E18.37094
G1 X-12.945 Y-13.954 E18.42443
G1 X-12.471 Y-14.484 E18.4779
G1 X-11.939 Y-14.957 E18.53144
G1 X-11.358 Y-15.368 E18.58497
G1 X-10.735 Y-15.711 E18.63845
G1 X-10.077 Y-15.982 E18.69197
G1 X-9.393 Y-16.177 E18.74547
G1 X-8.691 Y-16.294 E18.79899
G1 X-8 Y-16.332 E18.85104
G1 X-5 Y-16.332 E19.07667
G1 X-4.29 Y-16.292 E19.13015
G1 X-3.588 Y-16.173 E19.1837
G1 X-2.905 Y-15.975 E19.23719
G1 X-2.248 Y-15.703 E19.29067
G1 X-1.625 Y-15.358 E19.34423
G1 X-1.001 Y-14.913 E19.40187
G1 X-.358 Y-15.368 E19.46111
G1 X0.265 Y-15.711 E19.5146
G1 X0.923 Y-15.982 E19.56812
G1 X1.607 Y-16.177 E19.62161
G1 X2.309 Y-16.294 E19.67514
G1 X3 Y-16.332 E19.72719
G1 X8 Y-16.332 E20.10323
G1 X8.71 Y-16.292 E20.15672
G1 X9.412 Y-16.173 E20.21027
G1 X10.095 Y-15.975 E20.26375
G1 X10.752 Y-15.703 E20.31723
G1 X11.375 Y-15.358 E20.37079
G1 X11.954 Y-14.945 E20.42428
G1 X12.484 Y-14.471 E20.47776
G1 X12.957 Y-13.939 E20.5313
G1 X13.368 Y-13.358 E20.58482
G1 X13.711 Y-12.735 E20.63831
G1 X13.982 Y-12.077 E20.69183
G1 X14.177 Y-11.393 E20.74532
G1 X14.294 Y-10.691 E20.79885
G1 X14.332 Y-10 E20.8509
G1 X14.332 Y10 E22.35508
G1 X14.292 Y10.71 E22.40857
G1 X14.173 Y11.412 E22.46212
G1 X13.975 Y12.095 E22.5156
G1 X13.703 Y12.752 E22.56908
G1 X13.358 Y13.375 E22.62264
G1 X12.945 Y13.954 E22.67613
G1 X12.471 Y14.484 E22.72961
G1 X11.939 Y14.957 E22.78315
G1 X11.358 Y15.368 E22.83667
G1 X10.735 Y15.711 E22.89016
G1 X10.077 Y15.982 E22.94368
G1 X9.393 Y16.177 E22.99717
G1 X8.691 Y16.294 E23.0507
G1 X8 Y16.332 E23.10275
G1 X-4.049 Y16.332 E24.00895
G1 X-4.759 Y16.292 E24.06243
G1 X-5.461 Y16.173 E24.11598
G1 X-6.144 Y15.975 E24.16946
G1 X-6.801 Y15.703 E24.22294
G1 X-7.424 Y15.358 E24.2765
G1 X-8.003 Y14.945 E24.32999
G1 X-8.533 Y14.471 E24.38347
G1 X-9.006 Y13.939 E24.43701
G1 X-9.417 Y13.358 E24.49053
G1 X-9.76 Y12.735 E24.54402
G1 X-10.031 Y12.077 E24.59754
G1 X-10.226 Y11.393 E24.65103
G1 X-10.343 Y10.691 E24.70456
G1 X-10.381 Y10.001 E24.75653
G1 X-10.382 Y5.001 E25.13258
G1 X-10.342 Y4.291 E25.18606
G1 X-10.223 Y3.59 E25.23954
G1 X-10.026 Y2.906 E25.29307
G1 X-9.753 Y2.249 E25.34658
G1 X-9.408 Y1.626 E25.40014
G1 X-9.121 Y1.222 E25.43741
G1 X-9.412 Y1.173 E25.45961
G1 X-10.095 Y0.975 E25.51309
G1 X-10.752 Y0.703 E25.56657
G1 X-11.375 Y0.358 E25.62013
G1 X-11.954 Y-0.055 E25.67362
G1 X-12.484 Y-.529 E25.7271
G1 X-12.957 Y-1.061 E25.78064
G1 X-13.368 Y-1.642 E25.83416
G1 X-13.711 Y-2.265 E25.88765
G1 X-13.982 Y-2.923 E25.94117
G1 X-14.177 Y-3.607 E25.99466
G1 X-14.294 Y-4.309 E26.04819
G1 X-14.332 Y-5 E26.10023
G1 F1500 E25.60023
G0 F3600 X-10.111 Y-5
G1 F1500 E26.10023
G1 F1800 X-10.111 Y-10 E26.47628
G1 X-10.071 Y-10.409 E26.50719
G1 X-9.953 Y-10.802 E26.53805
G1 X-9.761 Y-11.164 E26.56887
G1 X-9.502 Y-11.483 E26.59977
G1 X-9.187 Y-11.746 E26.63064
G1 X-8.827 Y-11.942 E26.66146
G1 X-8.435 Y-12.066 E26.69239
G1 X-8 Y-12.111 E26.72528
G1 X-5 Y-12.111 E26.9509
G1 X-4.591 Y-12.071 E26.98181
G1 X-4.198 Y-11.953 E27.01267
G1 X-3.836 Y-11.761 E27.04349
G1 X-3.517 Y-11.502 E27.0744
G1 X-3.254 Y-11.187 E27.10526
G1 X-3.058 Y-10.827 E27.13609
G1 X-2.934 Y-10.435 E27.16701
G1 X-2.889 Y-10 E27.1999
G1 X-2.889 Y-5 E27.57595
G1 X-2.929 Y-4.591 E27.60685
G1 X-3.047 Y-4.198 E27.63771
G1 X-3.239 Y-3.836 E27.66853
G1 X-3.498 Y-3.517 E27.69944
G1 X-3.813 Y-3.254 E27.7303
G1 X-4.173 Y-3.058 E27.76113
G1 X-4.565 Y-2.934 E27.79205
G1 X-5 Y-2.889 E27.82494
G1 X-8 Y-2.889 E28.05057
G1 X-8.409 Y-2.929 E28.08148
G1 X-8.802 Y-3.047 E28.11234
G1 X-9.164 Y-3.239 E28.14316
G1 X-9.483 Y-3.498 E28.17406
G1 X-9.746 Y-3.813 E28.20492
G1 X-9.942 Y-4.173 E28.23575
G1 X-10.066 Y-4.565 E28.26667
G1 X-10.111 Y-5 E28.29956
G1 F1500 E27.79956
G0 F3600 X-9.508 Y-10
G1 F1500 E28.29956
G1 F1800 X-9.468 Y-10.344 E28.32561
G1 X-9.351 Y-10.671 E28.35173
G1 X-9.162 Y-10.961 E28.37776
G1 X-8.911 Y-11.201 E28.40388
G1 X-8.613 Y-11.378 E28.42995
G1 X-8.195 Y-11.508 E28.46287
G1 X-5 Y-11.508 E28.70317
G1 X-4.656 Y-11.468 E28.72921
G1 X-4.329 Y-11.351 E28.75533
G1 X-4.039 Y-11.162 E28.78137
G1 X-3.799 Y-10.911 E28.80749
G1 X-3.622 Y-10.613 E28.83355
G1 X-3.519 Y-10.282 E28.85963
G1 X-3.492 Y-10 E28.88093
G1 X-3.492 Y-5 E29.25698
G1 X-3.532 Y-4.656 E29.28303
G1 X-3.649 Y-4.329 E29.30915
G1 X-3.838 Y-4.039 E29.33518
G1 X-4.089 Y-3.799 E29.3613
G1 X-4.387 Y-3.622 E29.38737
G1 X-4.805 Y-3.492 E29.42029
G1 X-8 Y-3.492 E29.66058
G1 X-8.344 Y-3.532 E29.68663
G1 X-8.671 Y-3.649 E29.71275
G1 X-8.961 Y-3.838 E29.73878
G1 X-9.201 Y-4.089 E29.7649
G1 X-9.378 Y-4.387 E29.79097
G1 X-9.481 Y-4.718 E29.81704
G1 X-9.508 Y-5 E29.83835
G1 X-9.508 Y-10 E30.2144
G0 F3600 X-8.905 Y-10
G1 F1800 X-8.865 Y-10.265 E30.23455
G1 X-8.749 Y-10.507 E30.25474
G1 X-8.568 Y-10.705 E30.27491
G1 X-8.336 Y-10.84 E30.2951
G1 X-8 Y-10.905 E30.32084
G1 X-5 Y-10.905 E30.54647
G1 X-4.735 Y-10.865 E30.56662
G1 X-4.493 Y-10.749 E30.58681
G1 X-4.295 Y-10.568 E30.60698
G1 X-4.16 Y-10.336 E30.62717
G1 X-4.095 Y-10 E30.65291
G1 X-4.095 Y-5 E31.02896
G1 X-4.135 Y-4.735 E31.04911
G1 X-4.251 Y-4.493 E31.0693
G1 X-4.432 Y-4.295 E31.08947
G1 X-4.664 Y-4.16 E31.10966
G1 X-5 Y-4.095 E31.1354
G1 X-8 Y-4.095 E31.36103
G1 X-8.265 Y-4.135 E31.38118
G1 X-8.507 Y-4.251 E31.40137
G1 X-8.705 Y-4.432 E31.42154
G1 X-8.84 Y-4.664 E31.44173
G1 X-8.905 Y-5 E31.46747
G1 X-8.905 Y-10 E31.84352
G0 F3600 X-8.302 Y-10
G1 F1800 X-8.263 Y-10.149 E31.8551
G1 X-8.155 Y-10.259 E31.86669
G1 X-8 Y-10.302 E31.87879
G1 X-5 Y-10.302 E32.10442
G1 X-4.851 Y-10.263 E32.116
G1 X-4.741 Y-10.155 E32.1276
G1 X-4.698 Y-10 E32.1397
G1 X-4.698 Y-5 E32.51574
G1 X-4.737 Y-4.851 E32.52733
G1 X-4.845 Y-4.741 E32.53892
G1 X-5 Y-4.698 E32.55102
G1 X-8 Y-4.698 E32.77665
G1 X-8.149 Y-4.737 E32.78823
G1 X-8.259 Y-4.845 E32.79983
G1 X-8.302 Y-5 E32.81192
G1 X-8.302 Y-10 E33.18797
G1 F1500 E32.68797
G0 F3600 X-10.714 Y-10
G1 F1500 E33.18797
G1 F1800 X-10.674 Y-10.464 E33.223
G1 X-10.555 Y-10.914 E33.258
G1 X-10.362 Y-11.337 E33.29297
G1 X-10.098 Y-11.721 E33.32802
G1 X-9.773 Y-12.054 E33.36302
G1 X-9.396 Y-12.327 E33.39802
G1 X-8.978 Y-12.532 E33.43304
G1 X-8.531 Y-12.662 E33.46805
G1 X-8 Y-12.714 E33.50818
G1 X-5 Y-12.714 E33.73381
G1 X-4.536 Y-12.674 E33.76883
G1 X-4.086 Y-12.555 E33.80384
G1 X-3.663 Y-12.362 E33.83881
G1 X-3.279 Y-12.098 E33.87386
G1 X-2.946 Y-11.773 E33.90885
G1 X-2.673 Y-11.396 E33.94386
G1 X-2.468 Y-10.978 E33.97887
G1 X-2.338 Y-10.531 E34.01389
G1 X-2.286 Y-10 E34.05401
G1 X-2.286 Y-5 E34.43006
G1 X-2.326 Y-4.536 E34.46509
G1 X-2.445 Y-4.086 E34.50009
G1 X-2.638 Y-3.663 E34.53506
G1 X-2.902 Y-3.279 E34.57011
G1 X-3.227 Y-2.946 E34.60511
G1 X-3.604 Y-2.673 E34.64011
G1 X-4.022 Y-2.468 E34.67513
G1 X-4.469 Y-2.338 E34.71014
G1 X-5 Y-2.286 E34.75027
G1 X-8 Y-2.286 E34.9759
G1 X-8.464 Y-2.326 E35.01092
G1 X-8.914 Y-2.445 E35.04593
G1 X-9.337 Y-2.638 E35.0809
G1 X-9.721 Y-2.902 E35.11595
G1 X-10.054 Y-3.227 E35.15094
G1 X-10.327 Y-3.604 E35.18595
G1 X-10.532 Y-4.022 E35.22096
G1 X-10.662 Y-4.469 E35.25598
G1 X-10.714 Y-5 E35.2961
G1 X-10.714 Y-10 E35.67215
G0 F3600 X-11.317 Y-10
G1 F1800 X-11.277 Y-10.513 E35.71085
G1 X-11.158 Y-11.014 E35.74958
G1 X-10.963 Y-11.49 E35.78826
G1 X-10.697 Y-11.931 E35.827
G1 X-10.366 Y-12.325 E35.8657
G1 X-9.978 Y-12.663 E35.9044
G1 X-9.542 Y-12.937 E35.94313
G1 X-9.069 Y-13.14 E35.98184
G1 X-8.57 Y-13.268 E36.02059
G1 X-8 Y-13.317 E36.06361
G1 X-5 Y-13.317 E36.28924
G1 X-4.487 Y-13.277 E36.32794
G1 X-3.986 Y-13.158 E36.36667
G1 X-3.51 Y-12.963 E36.40536
G1 X-3.069 Y-12.697 E36.44409
G1 X-2.675 Y-12.366 E36.48279
G1 X-2.337 Y-11.978 E36.52149
G1 X-2.063 Y-11.542 E36.56022
G1 X-1.86 Y-11.069 E36.59894
G1 X-1.732 Y-10.57 E36.63768
G1 X-1.683 Y-10 E36.68071
G1 X-1.683 Y-5 E37.05675
G1 X-1.723 Y-4.487 E37.09545
G1 X-1.842 Y-3.986 E37.13418
G1 X-2.037 Y-3.51 E37.17287
G1 X-2.303 Y-3.069 E37.2116
G1 X-2.634 Y-2.675 E37.25031
G1 X-3.022 Y-2.337 E37.28901
G1 X-3.458 Y-2.063 E37.32774
G1 X-3.931 Y-1.86 E37.36645
G1 X-4.43 Y-1.732 E37.40519
G1 X-5 Y-1.683 E37.44822
G1 X-8 Y-1.683 E37.67385
G1 X-8.513 Y-1.723 E37.71255
G1 X-9.014 Y-1.842 E37.75128
G1 X-9.49 Y-2.037 E37.78996
G1 X-9.931 Y-2.303 E37.8287
G1 X-10.325 Y-2.634 E37.8674
G1 X-10.663 Y-3.022 E37.9061
G1 X-10.937 Y-3.458 E37.94483
G1 X-11.14 Y-3.931 E37.98354
G1 X-11.268 Y-4.43 E38.02228
G1 X-11.317 Y-5 E38.06531
G1 X-11.317 Y-10 E38.44136
G0 F3600 X-11.92 Y-10
G1 F1800 X-11.88 Y-10.558 E38.48343
G1 X-11.761 Y-11.105 E38.52554
G1 X-11.565 Y-11.629 E38.56761
G1 X-11.297 Y-12.12 E38.60968
G1 X-10.961 Y-12.568 E38.6518
G1 X-10.565 Y-12.964 E38.69392
G1 X-10.117 Y-13.299 E38.73599
G1 X-9.626 Y-13.567 E38.77806
G1 X-9.101 Y-13.762 E38.82018
G1 X-8.554 Y-13.881 E38.86229
G1 X-8 Y-13.92 E38.90405
G1 X-5 Y-13.92 E39.12968
G1 X-4.442 Y-13.88 E39.17176
G1 X-3.895 Y-13.761 E39.21386
G1 X-3.371 Y-13.565 E39.25594
G1 X-2.88 Y-13.297 E39.29801
G1 X-2.432 Y-12.961 E39.34012
G1 X-2.036 Y-12.565 E39.38224
G1 X-1.701 Y-12.117 E39.42432
G1 X-1.433 Y-11.626 E39.46639
G1 X-1.238 Y-11.101 E39.50851
G1 X-1.119 Y-10.554 E39.55061
G1 X-1.08 Y-10 E39.59238
G1 X-1.08 Y-5 E39.96842
G1 X-1.12 Y-4.442 E40.0105
G1 X-1.239 Y-3.895 E40.0526
G1 X-1.435 Y-3.371 E40.09468
G1 X-1.703 Y-2.88 E40.13675
G1 X-2.039 Y-2.432 E40.17887
G1 X-2.435 Y-2.036 E40.22099
G1 X-2.883 Y-1.701 E40.26306
G1 X-3.374 Y-1.433 E40.30513
G1 X-3.899 Y-1.238 E40.34725
G1 X-4.446 Y-1.119 E40.38935
G1 X-5 Y-1.08 E40.43112
G1 X-8 Y-1.08 E40.65675
G1 X-8.558 Y-1.12 E40.69882
G1 X-9.105 Y-1.239 E40.74092
G1 X-9.629 Y-1.435 E40.783
G1 X-10.12 Y-1.703 E40.82507
G1 X-10.568 Y-2.039 E40.86719
G1 X-10.964 Y-2.435 E40.90931
G1 X-11.299 Y-2.883 E40.95138
G1 X-11.567 Y-3.374 E40.99345
G1 X-11.762 Y-3.899 E41.03557
G1 X-11.881 Y-4.446 E41.07767
G1 X-11.92 Y-5 E41.11944
G1 X-11.92 Y-10 E41.49549
G0 F3600 X-12.523 Y-10
G1 F1800 X-12.483 Y-10.6 E41.54072
G1 X-12.364 Y-11.189 E41.58591
G1 X-12.168 Y-11.757 E41.6311
G1 X-11.898 Y-12.295 E41.67637
G1 X-11.559 Y-12.791 E41.72156
G1 X-11.157 Y-13.239 E41.76683
G1 X-10.7 Y-13.629 E41.81201
G1 X-10.195 Y-13.955 E41.85722
G1 X-9.651 Y-14.211 E41.90244
G1 X-9.078 Y-14.393 E41.94765
G1 X-8.338 Y-14.523 E42.00416
G1 X-5 Y-14.523 E42.25521
