;FLAVOR:Marlin
;TIME:652
;Filament used: 0.224556m
;Layer height: 0.1
;MINX:-9.504
;MINY:-9.504
;MINZ:0.3
;MAXX:9.504
;MAXY:9.504
;MAXZ:12.7
;Generated with Cura_SteamEngine main
M104 S230
M105
M109 S230
M82 ;absolute extrusion mode
G28 ;Home
G1 Z15.0 F6000 ;Move the platform down 15mm
;Prime the extruder
G92 E0
G1 F200 E3
G92 E0
G92 E0
G92 E0
G1 F1500 E-0.5
;LAYER_COUNT:125
;LAYER:0
M107
G0 F3600 X3.861 Y-8.673 Z0.3
G0 X-8.804 Y-3.58
;TYPE:SKIRT
G1 F1500 E0
G1 F1800 X-8.368 Y-4.504 E0.07684
G1 X-7.783 Y-5.455 E0.16081
G1 X-7.194 Y-6.213 E0.23301
G1 X-6.637 Y-6.797 E0.29371
G1 X-5.985 Y-7.372 E0.35909
G1 X-5.18 Y-7.964 E0.43424
G1 X-4.486 Y-8.376 E0.49494
G1 X-3.697 Y-8.751 E0.56064
G1 X-2.783 Y-9.089 E0.63394
G1 X-2.002 Y-9.292 E0.69463
G1 X-1.21 Y-9.424 E0.75501
G1 X-.407 Y-9.504 E0.81571
G1 X0.4 Y-9.504 E0.8764
G1 X1.384 Y-9.407 E0.95076
G1 X2.347 Y-9.212 E1.02466
G1 X3.118 Y-8.976 E1.0853
G1 X3.861 Y-8.673 E1.14565
G1 X4.587 Y-8.322 E1.2063
G1 X5.275 Y-7.901 E1.26696
G1 X6.023 Y-7.343 E1.33715
G1 X6.776 Y-6.663 E1.41346
G1 X7.319 Y-6.066 E1.47415
G1 X7.789 Y-5.445 E1.53272
G1 X8.282 Y-4.663 E1.60225
G1 X8.783 Y-3.625 E1.68894
G1 X9.121 Y-2.675 E1.76477
G1 X9.403 Y-1.413 E1.86203
G1 X9.504 Y-.408 E1.93799
G1 X9.504 Y0.398 E1.99861
G1 X9.409 Y1.361 E2.07139
G1 X9.219 Y2.321 E2.14499
G1 X8.804 Y3.58 E2.24469
G1 X8.368 Y4.504 E2.32153
G1 X7.783 Y5.455 E2.40551
G1 X7.194 Y6.213 E2.4777
G1 X6.637 Y6.797 E2.5384
G1 X5.985 Y7.372 E2.60378
G1 X5.18 Y7.964 E2.67894
G1 X4.486 Y8.376 E2.73964
G1 X3.697 Y8.751 E2.80534
G1 X2.783 Y9.089 E2.87863
G1 X2.002 Y9.292 E2.93932
G1 X1.21 Y9.424 E2.99971
G1 X0.407 Y9.504 E3.0604
G1 X-.4 Y9.504 E3.12109
G1 X-1.384 Y9.407 E3.19546
G1 X-2.347 Y9.212 E3.26935
G1 X-3.118 Y8.976 E3.33
G1 X-3.861 Y8.673 E3.39034
G1 X-4.587 Y8.322 E3.45099
G1 X-5.275 Y7.901 E3.51166
G1 X-6.023 Y7.343 E3.58184
G1 X-6.776 Y6.663 E3.65815
G1 X-7.319 Y6.066 E3.71884
G1 X-7.789 Y5.445 E3.77742
G1 X-8.282 Y4.663 E3.84694
G1 X-8.787 Y3.618 E3.93423
G1 X-9.123 Y2.666 E4.01016
G1 X-9.403 Y1.415 E4.10658
G1 X-9.504 Y0.412 E4.18239
G1 X-9.504 Y-.395 E4.24309
G1 X-9.409 Y-1.361 E4.31609
G1 X-9.219 Y-2.321 E4.38969
G1 X-8.804 Y-3.58 E4.48939
G1 F1500 E3.98939
G0 F3600 X-8.302 Y0.294
G1 F1500 E4.48939
G1 F1800 X-8.293 Y-.451 E4.54543
G1 X-8.213 Y-1.208 E4.60268
G1 X-8.035 Y-2.082 E4.66976
G1 X-7.685 Y-3.13 E4.75286
G1 X-7.277 Y-3.987 E4.82425
G1 X-6.789 Y-4.772 E4.89376
G1 X-6.242 Y-5.469 E4.9604
G1 X-5.722 Y-6.002 E5.0164
G1 X-5.068 Y-6.551 E5.08062
G1 X-4.467 Y-6.99 E5.1366
G1 X-3.821 Y-7.362 E5.19266
G1 X-3.067 Y-7.7 E5.25481
G1 X-2.367 Y-7.955 E5.31084
G1 X-1.232 Y-8.212 E5.39836
G1 X-.289 Y-8.302 E5.46961
G1 X0.455 Y-8.293 E5.52557
G1 X1.227 Y-8.21 E5.58397
G1 X2.106 Y-8.029 E5.65146
G1 X3.201 Y-7.656 E5.73846
G1 X4.06 Y-7.236 E5.81038
G1 X4.69 Y-6.839 E5.86638
G1 X5.415 Y-6.269 E5.93574
G1 X5.965 Y-5.768 E5.9917
G1 X6.459 Y-5.211 E6.04769
G1 X6.864 Y-4.654 E6.09949
G1 X7.258 Y-4.022 E6.1555
G1 X7.674 Y-3.155 E6.22782
G1 X7.982 Y-2.274 E6.29801
G1 X8.213 Y-1.221 E6.37909
G1 X8.302 Y-.291 E6.44936
G1 X8.293 Y0.454 E6.50539
G1 X8.212 Y1.209 E6.5625
G1 X8.035 Y2.082 E6.6295
G1 X7.685 Y3.13 E6.71259
G1 X7.277 Y3.987 E6.78398
G1 X6.789 Y4.772 E6.8535
G1 X6.242 Y5.469 E6.92013
G1 X5.722 Y6.002 E6.97614
G1 X5.068 Y6.551 E7.04036
G1 X4.467 Y6.99 E7.09633
G1 X3.821 Y7.362 E7.1524
G1 X3.067 Y7.7 E7.21454
G1 X2.367 Y7.955 E7.27058
G1 X1.232 Y8.212 E7.3581
G1 X0.289 Y8.302 E7.42934
G1 X-.455 Y8.293 E7.4853
G1 X-1.227 Y8.21 E7.5437
G1 X-2.106 Y8.029 E7.6112
G1 X-3.201 Y7.656 E7.6982
G1 X-4.06 Y7.236 E7.77011
G1 X-4.69 Y6.839 E7.82612
G1 X-5.415 Y6.269 E7.89548
G1 X-5.965 Y5.768 E7.95143
G1 X-6.459 Y5.211 E8.00743
G1 X-6.864 Y4.654 E8.05922
G1 X-7.258 Y4.022 E8.11523
G1 X-7.677 Y3.148 E8.18813
G1 X-7.984 Y2.266 E8.25837
G1 X-8.212 Y1.223 E8.33866
G1 X-8.302 Y0.294 E8.40886
G0 F3600 X-7.701 Y0.236
G1 F1800 X-7.687 Y-.475 E8.46234
G1 X-7.587 Y-1.265 E8.52223
G1 X-7.443 Y-1.961 E8.57569
G1 X-7.125 Y-2.909 E8.65089
G1 X-6.732 Y-3.726 E8.71908
G1 X-6.293 Y-4.43 E8.78148
G1 X-5.768 Y-5.095 E8.8452
G1 X-4.898 Y-5.931 E8.93594
G1 X-4.111 Y-6.502 E9.00907
G1 X-3.039 Y-7.07 E9.10031
G1 X-2.161 Y-7.387 E9.17052
G1 X-1.136 Y-7.617 E9.24953
G1 X-.233 Y-7.701 E9.31773
G1 X0.479 Y-7.687 E9.37129
G1 X1.287 Y-7.583 E9.43256
G1 X1.984 Y-7.438 E9.48611
G1 X2.972 Y-7.098 E9.56469
G1 X3.794 Y-6.694 E9.63358
G1 X4.393 Y-6.31 E9.68709
G1 X5.033 Y-5.802 E9.74854
G1 X5.558 Y-5.322 E9.80204
G1 X6.286 Y-4.444 E9.88782
G1 X6.745 Y-3.703 E9.95338
G1 X7.119 Y-2.916 E10.01891
G1 X7.411 Y-2.075 E10.08587
G1 X7.618 Y-1.125 E10.15899
G1 X7.701 Y-.234 E10.2263
G1 X7.687 Y0.478 E10.27986
G1 X7.587 Y1.265 E10.33952
G1 X7.443 Y1.961 E10.39298
G1 X7.125 Y2.909 E10.46818
G1 X6.732 Y3.726 E10.53636
G1 X6.293 Y4.43 E10.59876
G1 X5.768 Y5.095 E10.66248
G1 X4.898 Y5.931 E10.75323
G1 X4.111 Y6.502 E10.82636
G1 X3.039 Y7.07 E10.9176
G1 X2.161 Y7.387 E10.98781
G1 X1.136 Y7.617 E11.06681
G1 X0.233 Y7.701 E11.13502
G1 X-.479 Y7.687 E11.18858
G1 X-1.287 Y7.583 E11.24985
G1 X-1.984 Y7.438 E11.30339
G1 X-2.972 Y7.098 E11.38198
G1 X-3.794 Y6.694 E11.45086
G1 X-4.393 Y6.31 E11.50438
G1 X-5.033 Y5.802 E11.56583
G1 X-5.558 Y5.322 E11.61933
G1 X-6.286 Y4.444 E11.70511
G1 X-6.745 Y3.703 E11.77067
G1 X-7.122 Y2.911 E11.83664
G1 X-7.413 Y2.068 E11.90371
G1 X-7.617 Y1.127 E11.97613
G1 X-7.701 Y0.236 E12.04343
G0 F3600 X-7.099 Y0.181
G1 F1800 X-7.081 Y-.496 E12.09437
G1 X-6.99 Y-1.176 E12.14597
G1 X-6.852 Y-1.839 E12.1969
G1 X-6.563 Y-2.687 E12.26428
G1 X-6.188 Y-3.464 E12.32917
G1 X-5.795 Y-4.089 E12.38469
G1 X-5.295 Y-4.72 E12.44524
G1 X-4.509 Y-5.469 E12.5269
G1 X-3.757 Y-6.012 E12.59666
G1 X-2.795 Y-6.519 E12.67845
G1 X-1.956 Y-6.819 E12.74546
G1 X-1.037 Y-7.021 E12.81623
G1 X-.177 Y-7.099 E12.88117
G1 X0.499 Y-7.08 E12.93203
G1 X1.197 Y-6.986 E12.98501
G1 X1.86 Y-6.846 E13.03597
G1 X2.744 Y-6.539 E13.10635
G1 X3.527 Y-6.152 E13.17204
G1 X4.461 Y-5.511 E13.25724
G1 X5.15 Y-4.877 E13.32765
G1 X5.795 Y-4.093 E13.40401
G1 X6.231 Y-3.386 E13.46648
G1 X6.565 Y-2.678 E13.52536
G1 X6.84 Y-1.878 E13.58898
G1 X7.022 Y-1.026 E13.6545
G1 X7.099 Y-.178 E13.71854
G1 X7.08 Y0.498 E13.76941
G1 X6.99 Y1.176 E13.82085
G1 X6.852 Y1.839 E13.87178
G1 X6.563 Y2.687 E13.93916
G1 X6.188 Y3.464 E14.00405
G1 X5.795 Y4.089 E14.05957
G1 X5.295 Y4.72 E14.12012
G1 X4.509 Y5.469 E14.20178
G1 X3.757 Y6.012 E14.27154
G1 X2.795 Y6.519 E14.35332
G1 X1.956 Y6.819 E14.42034
G1 X1.037 Y7.021 E14.4911
G1 X0.177 Y7.099 E14.55605
G1 X-.499 Y7.08 E14.60691
G1 X-1.197 Y6.986 E14.65988
G1 X-1.86 Y6.846 E14.71085
G1 X-2.744 Y6.539 E14.78123
G1 X-3.527 Y6.152 E14.84691
G1 X-4.461 Y5.511 E14.93211
G1 X-5.15 Y4.877 E15.00253
G1 X-5.795 Y4.093 E15.07889
G1 X-6.231 Y3.386 E15.14136
G1 X-6.568 Y2.673 E15.20067
G1 X-6.842 Y1.871 E15.26441
G1 X-7.022 Y1.028 E15.32924
G1 X-7.099 Y0.181 E15.39321
G0 F3600 X-6.497 Y0.127
G1 F1800 X-6.435 Y-.893 E15.47006
G1 X-6.261 Y-1.714 E15.53318
G1 X-6.002 Y-2.466 E15.593
G1 X-5.644 Y-3.201 E15.65449
G1 X-5.222 Y-3.844 E15.71233
G1 X-4.822 Y-4.344 E15.76049
G1 X-4.121 Y-5.008 E15.83311
G1 X-3.405 Y-5.522 E15.8994
G1 X-2.551 Y-5.967 E15.97182
G1 X-1.754 Y-6.25 E16.03543
G1 X-.938 Y-6.427 E16.09823
G1 X-.124 Y-6.497 E16.15968
G1 X0.907 Y-6.433 E16.23737
G1 X1.734 Y-6.256 E16.30097
G1 X2.52 Y-5.98 E16.36363
G1 X3.258 Y-5.611 E16.42568
G1 X4.089 Y-5.037 E16.50164
G1 X4.74 Y-4.433 E16.56843
G1 X5.305 Y-3.743 E16.6355
G1 X5.716 Y-3.07 E16.69481
G1 X6.063 Y-2.289 E16.75909
G1 X6.269 Y-1.683 E16.80722
G1 X6.428 Y-.926 E16.8654
G1 X6.497 Y-.125 E16.92587
G1 X6.435 Y0.894 E17.00265
G1 X6.261 Y1.714 E17.06569
G1 X6.002 Y2.466 E17.12551
G1 X5.644 Y3.201 E17.187
G1 X5.222 Y3.844 E17.24484
G1 X4.822 Y4.344 E17.293
G1 X4.121 Y5.008 E17.36562
G1 X3.405 Y5.522 E17.43191
G1 X2.551 Y5.967 E17.50433
G1 X1.754 Y6.25 E17.56794
G1 X0.938 Y6.427 E17.63074
G1 X0.124 Y6.497 E17.69219
G1 X-.907 Y6.433 E17.76988
G1 X-1.734 Y6.256 E17.83348
G1 X-2.52 Y5.98 E17.89614
G1 X-3.258 Y5.611 E17.95819
G1 X-4.089 Y5.037 E18.03415
G1 X-4.74 Y4.433 E18.10094
G1 X-5.305 Y3.743 E18.16801
G1 X-5.716 Y3.07 E18.22732
G1 X-6.065 Y2.283 E18.29207
G1 X-6.27 Y1.676 E18.34026
G1 X-6.428 Y0.928 E18.39775
G1 X-6.497 Y0.127 E18.45822
G0 F3600 X-5.895 Y0.076
G1 F1800 X-5.837 Y-.815 E18.52537
G1 X-5.67 Y-1.587 E18.58478
G1 X-5.44 Y-2.247 E18.63734
G1 X-5.102 Y-2.935 E18.69499
G1 X-4.729 Y-3.497 E18.74572
G1 X-4.351 Y-3.965 E18.79097
G1 X-3.731 Y-4.55 E18.85508
G1 X-3.054 Y-5.03 E18.9175
G1 X-2.304 Y-5.417 E18.98097
G1 X-1.553 Y-5.68 E19.04082
G1 X-.838 Y-5.832 E19.09579
G1 X-0.073 Y-5.895 E19.15352
G1 X0.828 Y-5.836 E19.22143
G1 X1.605 Y-5.665 E19.28127
G1 X2.294 Y-5.421 E19.33624
G1 X2.987 Y-5.071 E19.39463
G1 X3.717 Y-4.562 E19.46156
G1 X4.329 Y-3.99 E19.52456
G1 X4.816 Y-3.39 E19.58268
G1 X5.2 Y-2.756 E19.63843
G1 X5.505 Y-2.059 E19.69565
G1 X5.696 Y-1.489 E19.74086
G1 X5.846 Y-.673 E19.80326
G1 X5.895 Y-0.074 E19.84846
G1 X5.837 Y0.815 E19.91547
G1 X5.67 Y1.587 E19.97487
G1 X5.44 Y2.247 E20.02744
G1 X5.102 Y2.935 E20.08509
G1 X4.729 Y3.497 E20.13582
G1 X4.351 Y3.965 E20.18106
G1 X3.731 Y4.55 E20.24517
G1 X3.054 Y5.03 E20.30759
G1 X2.304 Y5.417 E20.37106
G1 X1.553 Y5.68 E20.43091
G1 X0.838 Y5.832 E20.48589
G1 X0.073 Y5.895 E20.54362
G1 X-.828 Y5.836 E20.61153
G1 X-1.605 Y5.665 E20.67136
G1 X-2.294 Y5.421 E20.72633
G1 X-2.987 Y5.071 E20.78472
G1 X-3.717 Y4.562 E20.85166
G1 X-4.329 Y3.99 E20.91466
G1 X-4.816 Y3.39 E20.97278
G1 X-5.2 Y2.756 E21.02852
G1 X-5.507 Y2.054 E21.08615
G1 X-5.697 Y1.484 E21.13134
G1 X-5.845 Y0.675 E21.19319
G1 X-5.895 Y0.076 E21.2384
G0 F3600 X-5.293 Y0.027
G1 F1800 X-5.24 Y-.738 E21.29607
G1 X-5.08 Y-1.458 E21.35154
G1 X-4.81 Y-2.166 E21.40853
G1 X-4.56 Y-2.667 E21.45064
G1 X-4.235 Y-3.151 E21.49449
G1 X-3.882 Y-3.585 E21.53657
G1 X-3.334 Y-4.094 E21.59282
G1 X-2.705 Y-4.536 E21.65063
G1 X-2.057 Y-4.868 E21.70539
G1 X-1.355 Y-5.109 E21.76122
G1 X-.583 Y-5.249 E21.82022
G1 X-0.025 Y-5.293 E21.86232
G1 X0.751 Y-5.237 E21.92084
G1 X1.475 Y-5.075 E21.97663
G1 X2.215 Y-4.787 E22.03636
G1 X2.713 Y-4.532 E22.07843
G1 X3.347 Y-4.086 E22.13673
G1 X3.915 Y-3.55 E22.19547
G1 X4.327 Y-3.036 E22.24501
G1 X4.682 Y-2.445 E22.29687
G1 X4.947 Y-1.83 E22.34723
G1 X5.123 Y-1.298 E22.38937
G1 X5.249 Y-.583 E22.44398
G1 X5.293 Y-0.025 E22.48608
G1 X5.239 Y0.738 E22.5436
G1 X5.08 Y1.458 E22.59906
G1 X4.81 Y2.166 E22.65605
G1 X4.56 Y2.667 E22.69816
G1 X4.235 Y3.151 E22.74201
G1 X3.882 Y3.585 E22.78408
G1 X3.334 Y4.094 E22.84033
G1 X2.705 Y4.536 E22.89815
G1 X2.057 Y4.868 E22.95291
G1 X1.355 Y5.109 E23.00873
G1 X0.583 Y5.249 E23.06774
G1 X0.025 Y5.293 E23.10984
G1 X-.751 Y5.237 E23.16835
G1 X-1.475 Y5.075 E23.22415
G1 X-2.215 Y4.787 E23.28387
G1 X-2.713 Y4.532 E23.32595
G1 X-3.347 Y4.086 E23.38425
G1 X-3.915 Y3.55 E23.44299
G1 X-4.327 Y3.036 E23.49253
G1 X-4.682 Y2.445 E23.54438
G1 X-4.949 Y1.825 E23.59515
G1 X-5.124 Y1.294 E23.6372
G1 X-5.249 Y0.585 E23.69135
G1 X-5.293 Y0.027 E23.73344
G0 F3600 X-4.69 Y-0.019
G1 F1800 X-4.604 Y-.823 E23.79426
G1 X-4.49 Y-1.325 E23.83297
G1 X-4.252 Y-1.936 E23.88229
G1 X-3.845 Y-2.679 E23.946
G1 X-3.414 Y-3.201 E23.99692
G1 X-2.782 Y-3.747 E24.05973
G1 X-2.359 Y-4.04 E24.09843
G1 X-1.647 Y-4.372 E24.15752
G1 X-1.159 Y-4.537 E24.19626
G1 X-.493 Y-4.653 E24.2471
G1 X0.02 Y-4.69 E24.28579
G1 X0.839 Y-4.601 E24.34774
G1 X1.341 Y-4.485 E24.38649
G1 X1.98 Y-4.231 E24.43821
G1 X2.437 Y-3.994 E24.47693
G1 X3.127 Y-3.467 E24.54223
G1 X3.499 Y-3.111 E24.58095
G1 X3.9 Y-2.579 E24.63106
G1 X4.324 Y-1.806 E24.69737
G1 X4.548 Y-1.111 E24.75228
G1 X4.653 Y-.493 E24.79943
G1 X4.69 Y0.02 E24.83811
G1 X4.604 Y0.823 E24.89885
G1 X4.49 Y1.325 E24.93757
G1 X4.252 Y1.936 E24.98688
G1 X3.845 Y2.679 E25.0506
G1 X3.414 Y3.201 E25.10151
G1 X2.782 Y3.747 E25.16433
G1 X2.359 Y4.04 E25.20303
G1 X1.647 Y4.372 E25.26211
G1 X1.159 Y4.537 E25.30085
G1 X0.493 Y4.653 E25.3517
G1 X-0.02 Y4.69 E25.39038
G1 X-.839 Y4.601 E25.45234
G1 X-1.341 Y4.485 E25.49109
G1 X-1.98 Y4.231 E25.54281
G1 X-2.437 Y3.994 E25.58152
G1 X-3.127 Y3.467 E25.64682
G1 X-3.499 Y3.111 E25.68555
G1 X-3.9 Y2.579 E25.73565
G1 X-4.324 Y1.803 E25.80216
G1 X-4.549 Y1.106 E25.85724
G1 X-4.653 Y0.495 E25.90386
G1 X-4.69 Y-0.019 E25.94262
G0 F3600 X-4.086 Y-0.06
G1 F1800 X-4.008 Y-.735 E25.99372
G1 X-3.786 Y-1.539 E26.05645
G1 X-3.406 Y-2.233 E26.11596
G1 X-2.949 Y-2.814 E26.17155
G1 X-2.401 Y-3.28 E26.22565
G1 X-2.016 Y-3.542 E26.26068
G1 X-1.411 Y-3.817 E26.31066
G1 X-.749 Y-4.005 E26.36242
G1 X0.061 Y-4.086 E26.42364
G1 X0.749 Y-4.005 E26.47574
G1 X1.404 Y-3.82 E26.52693
G1 X2.156 Y-3.458 E26.5897
G1 X2.745 Y-2.999 E26.64586
G1 X3.079 Y-2.675 E26.68086
G1 X3.406 Y-2.233 E26.72221
G1 X3.693 Y-1.709 E26.76715
G1 X3.832 Y-1.371 E26.79463
G1 X4.006 Y-.743 E26.84364
G1 X4.086 Y0.061 E26.90441
G1 X4.008 Y0.735 E26.95544
G1 X3.786 Y1.539 E27.01817
G1 X3.406 Y2.233 E27.07768
G1 X2.949 Y2.814 E27.13327
G1 X2.401 Y3.28 E27.18737
G1 X2.016 Y3.542 E27.2224
G1 X1.411 Y3.817 E27.27238
G1 X0.749 Y4.005 E27.32414
G1 X-0.061 Y4.086 E27.38536
G1 X-.749 Y4.005 E27.43746
G1 X-1.404 Y3.82 E27.48865
G1 X-2.156 Y3.458 E27.55142
G1 X-2.745 Y2.999 E27.60758
G1 X-3.079 Y2.675 E27.64258
G1 X-3.406 Y2.233 E27.68393
G1 X-3.694 Y1.707 E27.72903
G1 X-3.833 Y1.368 E27.75659
G1 X-4.006 Y0.743 E27.80536
G1 X-4.086 Y-0.06 E27.86605
G0 F3600 X-3.482 Y-0.095
G1 F1800 X-3.411 Y-.647 E27.90791
G1 X-3.275 Y-1.142 E27.94652
G1 X-3.137 Y-1.477 E27.97377
G1 X-2.755 Y-2.111 E28.02944
G1 X-2.361 Y-2.534 E28.07292
G1 X-2.02 Y-2.812 E28.106
G1 X-1.514 Y-3.118 E28.15048
G1 X-1.174 Y-3.263 E28.17828
G1 X-.66 Y-3.409 E28.21846
G1 X0.096 Y-3.482 E28.27559
G1 X0.66 Y-3.409 E28.31836
G1 X1.169 Y-3.265 E28.35814
G1 X1.509 Y-3.121 E28.38591
G1 X2.021 Y-2.812 E28.43089
G1 X2.364 Y-2.532 E28.46419
G1 X2.758 Y-2.108 E28.50772
G1 X3.135 Y-1.48 E28.56281
G1 X3.274 Y-1.142 E28.5903
G1 X3.41 Y-.653 E28.62847
G1 X3.482 Y0.096 E28.68506
G1 X3.411 Y0.647 E28.72685
G1 X3.275 Y1.142 E28.76545
G1 X3.137 Y1.477 E28.7927
G1 X2.755 Y2.111 E28.84837
G1 X2.361 Y2.534 E28.89185
G1 X2.02 Y2.812 E28.92494
G1 X1.514 Y3.118 E28.96941
G1 X1.174 Y3.263 E28.99721
G1 X0.66 Y3.409 E29.0374
G1 X-0.096 Y3.482 E29.09452
G1 X-.66 Y3.409 E29.13729
G1 X-1.169 Y3.265 E29.17708
G1 X-1.509 Y3.121 E29.20485
G1 X-2.021 Y2.812 E29.24982
G1 X-2.364 Y2.532 E29.28312
G1 X-2.758 Y2.108 E29.32666
G1 X-3.136 Y1.478 E29.38191
G1 X-3.275 Y1.139 E29.40947
G1 X-3.409 Y0.653 E29.44738
G1 X-3.482 Y-0.095 E29.50391
G0 F3600 X-2.865 Y-.221
G1 F1800 X-2.815 Y-.559 E29.52961
G1 X-2.579 Y-1.247 E29.58431
G1 X-2.261 Y-1.765 E29.63002
G1 X-1.98 Y-2.067 E29.66105
G1 X-1.639 Y-2.345 E29.69414
G1 X-1.278 Y-2.563 E29.72585
G1 X-.938 Y-2.708 E29.75365
G1 X-.224 Y-2.864 E29.80862
G1 X0.224 Y-2.864 E29.84231
G1 X0.934 Y-2.71 E29.89695
G1 X1.274 Y-2.566 E29.92472
G1 X1.64 Y-2.345 E29.95688
G1 X1.983 Y-2.065 E29.99018
G1 X2.264 Y-1.762 E30.02126
G1 X2.578 Y-1.251 E30.06637
G1 X2.717 Y-.913 E30.09385
G1 X2.864 Y-.224 E30.14684
G1 X2.865 Y0.221 E30.18031
G1 X2.815 Y0.559 E30.20601
G1 X2.579 Y1.247 E30.26071
G1 X2.261 Y1.765 E30.30642
G1 X1.98 Y2.067 E30.33745
G1 X1.639 Y2.345 E30.37054
G1 X1.278 Y2.563 E30.40225
G1 X0.938 Y2.708 E30.43005
G1 X0.224 Y2.864 E30.48502
G1 X-.224 Y2.864 E30.51871
G1 X-.934 Y2.71 E30.57336
G1 X-1.274 Y2.566 E30.60113
G1 X-1.64 Y2.345 E30.63328
G1 X-1.983 Y2.065 E30.66658
G1 X-2.264 Y1.762 E30.69766
G1 X-2.578 Y1.249 E30.7429
G1 X-2.717 Y0.91 E30.77045
G1 X-2.864 Y0.225 E30.82315
G1 X-2.865 Y-.221 E30.85669
G0 F3600 X-2.268 Y-.132
G1 F1800 X-2.16 Y-.683 E30.89892
G1 X-2.022 Y-1.018 E30.92617
G1 X-1.768 Y-1.418 E30.9618
G1 X-1.258 Y-1.877 E31.01341
G1 X-1.041 Y-2.008 E31.03247
G1 X-.481 Y-2.216 E31.0774
G1 X0.135 Y-2.268 E31.12389
G1 X0.481 Y-2.216 E31.15021
G1 X1.039 Y-2.01 E31.19494
G1 X1.258 Y-1.878 E31.21418
G1 X1.77 Y-1.416 E31.26604
G1 X2.02 Y-1.021 E31.3012
G1 X2.159 Y-.683 E31.32869
G1 X2.268 Y-.135 E31.37071
G1 X2.268 Y0.132 E31.39079
G1 X2.16 Y0.683 E31.43302
G1 X2.022 Y1.018 E31.46027
G1 X1.768 Y1.418 E31.4959
G1 X1.258 Y1.877 E31.54751
G1 X1.041 Y2.008 E31.56657
G1 X0.481 Y2.216 E31.6115
G1 X-.135 Y2.268 E31.65799
G1 X-.481 Y2.216 E31.68431
